X: 38867
T: Sunderland Lasses, The
R: three-two
M: 3/2
K: Gmajor
JB4 GABc (3ded B2|GABc (3ded B2 d2{f}g2|JB4 GABc (3ded B2|(A2.e2) .e2(A2 c2e2):|
|:GABc (3ded B2 .g2B2|GABc (3ded B2 d2{f}g2|GABc (3ded B2 .g2B2|(A2.e2) .e2(A2 c2e2):|
|:{f}g4 defg (3gag d2|(B2.d2) d2G2 B2d2|{f}g4 defg (3gag d2|(A2.e2) .e2(A2 c2e2):|

